X:32
T:Scotch Set Of Quadrilles No.1. Le4.032
B:L.Leadley MS#4 c1850
Z:Village Music Project, 2016 Steve Mansfield
M:6/8
L:1/8
Q:3/8=90
K:Eb
(B/A/) | G2G AGA | B2G E2e | caa fge | dfd B2B |
G2G AGA | B2G E2e | cBA GAF | [G,E][G,E][G,E] [G,E]2 H||
|: B | e2e fed | f2d B2e | fed cdB | =ABc F2F |
B=AB cde | dcB f2F | Bed cB=A | B3 B2 !segno!:|
|: (A/F/) | E2E DEF | EFG G2G | F2E D2C | =B,CD G,2(G/F/) |
E2E DEF | EFG G2G | AGF EFD | C3 C2 !segno!:|

